X:1
T:Dad's a Millionaire
M:4/4
L:1/8
K:A
 c2| E2 A2 c3 A| BA FG A3 F| E3 E e3 c| e6 c2| E2 A2 c3 A| BA FG A3 F|\
 E3 E e3 G| A6 c2| B2 E2 E3 D| CE AB c3 e| d2 F2 F3 A| GA Bc B3 c|\
 E2 A2 c3 A| BA FG A3 F| E3 E e3 G| A6 c2| e3 c f3 c| e/2e/2 ec A A3 c|\
 e3 c f3 c| e/2e/2 ec A B3 c| E2 A2 c3 A| BA FG A3 F| E3 E e3 G| A6||\
